2. Evclid/img/instagram-320.svg

<svg height="40" viewBox="0 0 40 40" width="40" xmlns="http://www.w3.org/2000/svg"><g fill="#7c7c7c"><path d="m16.171875 20c0 2.113281 1.714844 3.828125 3.828125 3.828125s3.828125-1.714844 3.828125-3.828125-1.714844-3.828125-3.828125-3.828125-3.828125 1.714844-3.828125 3.828125zm0 0"/><path d="m11.046875 13.226562c.183594-.5.476563-.949218.859375-1.320312.371094-.382812.820312-.675781 1.320312-.859375.40625-.15625 1.011719-.34375 2.132813-.394531 1.210937-.054688 1.574219-.066406 4.640625-.066406s3.429688.011718 4.640625.066406c1.121094.050781 1.726563.238281 2.132813.394531.5.183594.949218.476563 1.320312.859375.382812.371094.675781.820312.859375 1.320312.15625.40625.34375 1.011719.394531 2.132813.054688 1.210937.066406 1.574219.066406 4.640625s-.011718 3.429688-.066406 4.640625c-.050781 1.121094-.238281 1.726563-.394531 2.132813-.183594.5-.476563.949218-.859375 1.320312-.371094.382812-.820312.675781-1.320312.859375-.40625.15625-1.011719.34375-2.132813.394531-1.210937.054688-1.574219.066406-4.640625.066406s-3.429688-.011718-4.640625-.066406c-1.121094-.050781-1.726563-.238281-2.132813-.394531-1-.386719-1.792968-1.179687-2.179687-2.179687-.15625-.40625-.34375-1.011719-.394531-2.132813-.054688-1.210937-.066406-1.574219-.066406-4.640625s.011718-3.429688.066406-4.640625c.050781-1.121094.238281-1.726563.394531-2.132813zm8.953125 12.671876c3.257812 0 5.898438-2.640626 5.898438-5.898438s-2.640626-5.898438-5.898438-5.898438-5.898438 2.640626-5.898438 5.898438 2.640626 5.898438 5.898438 5.898438zm-6.128906-10.652344c.757812 0 1.375-.617188 1.375-1.375 0-.761719-.617188-1.378906-1.375-1.378906-.761719 0-1.378906.617187-1.378906 1.378906 0 .757812.617187 1.375 1.378906 1.375zm0 0"/><path d="m20 0c11.042969 0 20 8.957031 20 20s-8.957031 20-20 20-20-8.957031-20-20 8.957031-20 20-20zm-11.414062 24.734375c.054687 1.222656.25 2.058594.53125 2.789063.597656 1.542968 1.816406 2.761718 3.359374 3.359374.730469.28125 1.566407.476563 2.789063.53125 1.222656.058594 1.613281.070313 4.734375.070313 3.117188 0 3.511719-.011719 4.734375-.070313 1.222656-.054687 2.058594-.25 2.789063-.53125.765624-.289062 1.460937-.742187 2.03125-1.328124.585937-.570313 1.039062-1.265626 1.328124-2.03125.28125-.730469.476563-1.566407.53125-2.789063.058594-1.222656.070313-1.617187.070313-4.734375s-.011719-3.511719-.070313-4.734375c-.054687-1.222656-.25-2.058594-.53125-2.789063-.289062-.765624-.742187-1.460937-1.328124-2.03125-.570313-.585937-1.265626-1.039062-2.03125-1.328124-.730469-.28125-1.566407-.476563-2.789063-.53125-1.222656-.058594-1.617187-.070313-4.734375-.070313s-3.511719.011719-4.734375.070313c-1.222656.054687-2.058594.25-2.789063.53125-.765624.289062-1.460937.742187-2.035156 1.328124-.582031.570313-1.035156 1.265626-1.324218 2.03125-.28125.730469-.476563 1.566407-.53125 2.789063-.058594 1.222656-.070313 1.617187-.070313 4.734375s.011719 3.511719.070313 4.734375zm0 0"/></g></svg>

<?xml version="1.0" encoding="UTF-8"?>
<svg xmlns="http://www.w3.org/2000/svg" xmlns:xlink="http://www.w3.org/1999/xlink" width="40px" height="40px" viewBox="0 0 40 40" version="1.1">
<g id="surface1">
<path style=" stroke:none;fill-rule:nonzero;fill:rgb(48.627451%,48.627451%,48.627451%);fill-opacity:1;" d="M 16.171875 20 C 16.171875 22.113281 17.886719 23.828125 20 23.828125 C 22.113281 23.828125 23.828125 22.113281 23.828125 20 C 23.828125 17.886719 22.113281 16.171875 20 16.171875 C 17.886719 16.171875 16.171875 17.886719 16.171875 20 Z M 16.171875 20 "/>
<path style=" stroke:none;fill-rule:nonzero;fill:rgb(48.627451%,48.627451%,48.627451%);fill-opacity:1;" d="M 11.046875 13.226562 C 11.230469 12.726562 11.523438 12.277344 11.90625 11.90625 C 12.277344 11.523438 12.726562 11.230469 13.226562 11.046875 C 13.632812 10.890625 14.238281 10.703125 15.359375 10.652344 C 16.570312 10.597656 16.933594 10.585938 20 10.585938 C 23.066406 10.585938 23.429688 10.597656 24.640625 10.652344 C 25.761719 10.703125 26.367188 10.890625 26.773438 11.046875 C 27.273438 11.230469 27.722656 11.523438 28.09375 11.90625 C 28.476562 12.277344 28.769531 12.726562 28.953125 13.226562 C 29.109375 13.632812 29.296875 14.238281 29.347656 15.359375 C 29.402344 16.570312 29.414062 16.933594 29.414062 20 C 29.414062 23.066406 29.402344 23.429688 29.347656 24.640625 C 29.296875 25.761719 29.109375 26.367188 28.953125 26.773438 C 28.769531 27.273438 28.476562 27.722656 28.09375 28.09375 C 27.722656 28.476562 27.273438 28.769531 26.773438 28.953125 C 26.367188 29.109375 25.761719 29.296875 24.640625 29.347656 C 23.429688 29.402344 23.066406 29.414062 20 29.414062 C 16.933594 29.414062 16.570312 29.402344 15.359375 29.347656 C 14.238281 29.296875 13.632812 29.109375 13.226562 28.953125 C 12.226562 28.566406 11.433594 27.773438 11.046875 26.773438 C 10.890625 26.367188 10.703125 25.761719 10.652344 24.640625 C 10.597656 23.429688 10.585938 23.066406 10.585938 20 C 10.585938 16.933594 10.597656 16.570312 10.652344 15.359375 C 10.703125 14.238281 10.890625 13.632812 11.046875 13.226562 Z M 20 25.898438 C 23.257812 25.898438 25.898438 23.257812 25.898438 20 C 25.898438 16.742188 23.257812 14.101562 20 14.101562 C 16.742188 14.101562 14.101562 16.742188 14.101562 20 C 14.101562 23.257812 16.742188 25.898438 20 25.898438 Z M 13.871094 15.246094 C 14.628906 15.246094 15.246094 14.628906 15.246094 13.871094 C 15.246094 13.109375 14.628906 12.492188 13.871094 12.492188 C 13.109375 12.492188 12.492188 13.109375 12.492188 13.871094 C 12.492188 14.628906 13.109375 15.246094 13.871094 15.246094 Z M 13.871094 15.246094 "/>
<path style=" stroke:none;fill-rule:nonzero;fill:rgb(48.627451%,48.627451%,48.627451%);fill-opacity:1;" d="M 20 0 C 31.042969 0 40 8.957031 40 20 C 40 31.042969 31.042969 40 20 40 C 8.957031 40 0 31.042969 0 20 C 0 8.957031 8.957031 0 20 0 Z M 8.585938 24.734375 C 8.640625 25.957031 8.835938 26.792969 9.117188 27.523438 C 9.714844 29.066406 10.933594 30.285156 12.476562 30.882812 C 13.207031 31.164062 14.042969 31.359375 15.265625 31.414062 C 16.488281 31.472656 16.878906 31.484375 20 31.484375 C 23.117188 31.484375 23.511719 31.472656 24.734375 31.414062 C 25.957031 31.359375 26.792969 31.164062 27.523438 30.882812 C 28.289062 30.59375 28.984375 30.140625 29.554688 29.554688 C 30.140625 28.984375 30.59375 28.289062 30.882812 27.523438 C 31.164062 26.792969 31.359375 25.957031 31.414062 24.734375 C 31.472656 23.511719 31.484375 23.117188 31.484375 20 C 31.484375 16.882812 31.472656 16.488281 31.414062 15.265625 C 31.359375 14.042969 31.164062 13.207031 30.882812 12.476562 C 30.59375 11.710938 30.140625 11.015625 29.554688 10.445312 C 28.984375 9.859375 28.289062 9.40625 27.523438 9.117188 C 26.792969 8.835938 25.957031 8.640625 24.734375 8.585938 C 23.511719 8.527344 23.117188 8.515625 20 8.515625 C 16.882812 8.515625 16.488281 8.527344 15.265625 8.585938 C 14.042969 8.640625 13.207031 8.835938 12.476562 9.117188 C 11.710938 9.40625 11.015625 9.859375 10.441406 10.445312 C 9.859375 11.015625 9.40625 11.710938 9.117188 12.476562 C 8.835938 13.207031 8.640625 14.042969 8.585938 15.265625 C 8.527344 16.488281 8.515625 16.882812 8.515625 20 C 8.515625 23.117188 8.527344 23.511719 8.585938 24.734375 Z M 8.585938 24.734375 "/>
</g>
</svg>
